X: 1
T: Yolanda*
R: jig
S: Steve Gruverman (in Down East collection)
N: also in Qu\'ebec City workshop, from Betsy Hooper
M: 6/8
L: 1/8
K: G
|:\
"G"gfg "D"def | "G"gfg d3 | "C"ece "G"dBd |\
[1,3 "C7"cBc "G"d2B :|[2,4 "D7"cBA "G"G3 :|
|:\
"G"G2A BAB | "C"cBc "G"dBd | "C"c2e "G"ded |\
[1,3 "E7"cBA "G"B2G :|[2,4 "D7"cBA "G"G3 :|
%%begintext align
%% *Actually, I don't know the title of the second tune,
%% but Yolanda seemed like a good name to follow Zelda.
%%endtext
